wp-content/themes/ednc-2016/assets/images/logo-square.svg

<?xml version="1.0" encoding="UTF-8" standalone="no"?>
<svg width="134px" height="134px" viewBox="0 0 134 134" version="1.1" xmlns="http://www.w3.org/2000/svg" xmlns:xlink="http://www.w3.org/1999/xlink" xmlns:sketch="http://www.bohemiancoding.com/sketch/ns">
    <!-- Generator: Sketch 3.1.1 (8761) - http://www.bohemiancoding.com/sketch -->
    <title>Logo</title>
    <desc>Created with Sketch.</desc>
    <defs>
        <linearGradient x1="3.061617e-15%" y1="50%" x2="100%" y2="50%" id="linearGradient-1">
            <stop stop-color="#801760" offset="0%"></stop>
            <stop stop-color="#67124B" offset="100%"></stop>
        </linearGradient>
    </defs>
    <g id="Article" stroke="none" stroke-width="1" fill="none" fill-rule="evenodd" sketch:type="MSPage">
        <g id="Desktop-HD-2" sketch:type="MSArtboardGroup" transform="translate(-8.000000, -8.000000)">
            <g id="Header" sketch:type="MSLayerGroup">
                <g id="Logo" transform="translate(8.000000, 8.000000)" sketch:type="MSShapeGroup">
                    <rect id="Background" fill="url(#linearGradient-1)" x="0" y="0" width="134" height="134"></rect>
                    <path d="M37.57,83 L37.57,75.902 L34.756,75.902 L34.084,79.556 C34,79.976 33.874,80.018 33.412,80.018 L22.744,80.018 L22.744,69.182 L33.958,69.182 L33.958,66.158 L22.744,66.158 L22.744,55.574 L32.488,55.574 C32.95,55.574 33.118,55.7 33.202,56.12 L33.79,59.354 L36.646,59.522 L36.646,52.592 L15.562,52.592 L15.562,54.902 L18.208,55.196 C18.796,55.238 18.88,55.406 18.88,56.036 L18.88,79.598 C18.88,80.228 18.796,80.354 18.208,80.438 L15.562,80.732 L15.562,83 L37.57,83 Z M61.1059998,83 L61.1059998,80.732 L58.9639998,80.438 C58.3339998,80.354 58.2919998,80.27 58.2919998,79.598 L58.2919998,51.29 L51.8659998,51.29 L51.4879998,53.516 L54.0079998,54.314 C54.3859998,54.44 54.5539998,54.734 54.5539998,55.154 L54.5539998,63.008 C52.9159998,61.832 50.6479998,60.992 48.1279998,60.992 C43.0879998,60.992 39.3499998,64.394 39.3499998,72.668 C39.3499998,80.396 42.4999998,83.504 47.2879998,83.504 C50.5639998,83.504 52.7479998,82.034 54.6799998,80.186 L54.8479998,80.228 L55.1839998,83 L61.1059998,83 Z M54.4699998,76.826 C52.6219998,78.674 50.6059998,80.312 48.1279998,80.312 C45.1879998,80.312 43.2139998,78.422 43.2139998,72.584 C43.2139998,67.586 44.7679998,64.142 48.7159998,64.142 C50.9419998,64.142 53.2099998,65.36 54.4699998,66.41 L54.4699998,76.826 Z M89.3879995,83 L89.3879995,55.994 C89.3879995,55.364 89.4299995,55.28 90.0599995,55.196 L92.8739995,54.86 L92.8739995,52.592 L82.7099995,52.592 L82.7099995,54.86 L85.3559995,55.154 C85.9439995,55.196 86.0279995,55.364 86.0279995,55.994 L86.0279995,77.792 L71.0759995,52.55 L62.8439995,52.55 L62.8439995,54.86 L65.4899995,55.154 C66.0779995,55.196 66.1619995,55.364 66.1619995,55.994 L66.1619995,79.598 C66.1619995,80.228 66.0779995,80.354 65.4899995,80.438 L62.8439995,80.732 L62.8439995,83 L73.0499995,83 L73.0499995,80.732 L70.2359995,80.396 C69.6059995,80.312 69.5639995,80.228 69.5639995,79.556 L69.5639995,57.59 L84.8939995,83 L89.3879995,83 Z M117.517999,74.936 L114.829999,74.936 L114.157999,78.716 C114.073999,79.22 113.905999,79.346 113.569999,79.472 C111.973999,80.144 109.579999,80.354 107.689999,80.354 C101.137999,80.354 97.1059993,75.986 97.1059993,67.796 C97.1059993,59.564 101.389999,55.196 107.983999,55.196 C109.957999,55.196 111.847999,55.616 113.317999,56.12 C113.737999,56.246 113.821999,56.498 113.863999,56.876 L114.577999,60.866 L117.433999,61.034 L117.433999,54.314 C115.333999,52.928 111.847999,52.046 108.151999,52.046 C98.0719993,52.046 93.0739993,58.682 93.0739993,67.796 C93.0739993,77.036 97.1899993,83.504 107.437999,83.504 C111.301999,83.504 115.249999,82.79 117.517999,81.278 L117.517999,74.936 Z" id="EdNC-2" fill="#ECF0F1"></path>
                </g>
            </g>
        </g>
    </g>
</svg>

<svg height="134" viewBox="0 0 134 134" width="134" xmlns="http://www.w3.org/2000/svg" xmlns:xlink="http://www.w3.org/1999/xlink"><linearGradient id="a" x1="0%" x2="100%" y1="50%" y2="50%"><stop offset="0" stop-color="#801760"/><stop offset="1" stop-color="#67124b"/></linearGradient><g fill="none" fill-rule="evenodd"><path d="m0 0h134v134h-134z" fill="url(#a)"/><path d="m37.57 83v-7.098h-2.814l-.672 3.654c-.084.42-.21.462-.672.462h-10.668v-10.836h11.214v-3.024h-11.214v-10.584h9.744c.462 0 .63.126.714.546l.588 3.234 2.856.168v-6.93h-21.084v2.31l2.646.294c.588.042.672.21.672.84v23.562c0 .63-.084.756-.672.84l-2.646.294v2.268zm23.5359998 0v-2.268l-2.142-.294c-.63-.084-.672-.168-.672-.84v-28.308h-6.426l-.378 2.226 2.52.798c.378.126.546.42.546.84v7.854c-1.638-1.176-3.906-2.016-6.426-2.016-5.04 0-8.778 3.402-8.778 11.676 0 7.728 3.15 10.836 7.938 10.836 3.276 0 5.46-1.47 7.392-3.318l.168.042.336 2.772zm-6.636-6.174c-1.848 1.848-3.864 3.486-6.342 3.486-2.94 0-4.914-1.89-4.914-7.728 0-4.998 1.554-8.442 5.502-8.442 2.226 0 4.494 1.218 5.754 2.268zm34.9179997 6.174v-27.006c0-.63.042-.714.672-.798l2.814-.336v-2.268h-10.164v2.268l2.646.294c.588.042.672.21.672.84v21.798l-14.952-25.242h-8.232v2.31l2.646.294c.588.042.672.21.672.84v23.604c0 .63-.084.756-.672.84l-2.646.294v2.268h10.206v-2.268l-2.814-.336c-.63-.084-.672-.168-.672-.84v-21.966l15.33 25.41zm28.1299995-8.064h-2.688l-.672 3.78c-.084.504-.252.63-.588.756-1.596.672-3.99.882-5.88.882-6.552 0-10.5839997-4.368-10.5839997-12.558 0-8.232 4.2839997-12.6 10.8779997-12.6 1.974 0 3.864.42 5.334.924.42.126.504.378.546.756l.714 3.99 2.856.168v-6.72c-2.1-1.386-5.586-2.268-9.282-2.268-10.0799997 0-15.0779997 6.636-15.0779997 15.75 0 9.24 4.116 15.708 14.3639997 15.708 3.864 0 7.812-.714 10.08-2.226z" fill="#ecf0f1"/></g></svg>
